icons/circle/48/pdfsam.svg

<svg xmlns="http://www.w3.org/2000/svg" viewBox="0 0 48 48">
 <defs>
  <linearGradient id="linearGradient3764" x1="1" x2="47" gradientUnits="userSpaceOnUse" gradientTransform="matrix(0,-1,1,0,-1.5e-6,47.999998)">
   <stop style="stop-color:#d84a18;stop-opacity:1"/>
   <stop offset="1" style="stop-color:#e6511e;stop-opacity:1"/>
  </linearGradient>
  <linearGradient id="linearGradient4198" y1="47" x2="0" y2="1" gradientUnits="userSpaceOnUse">
   <stop style="stop-color:#70b219;stop-opacity:1"/>
   <stop offset="1" style="stop-color:#7cc41c;stop-opacity:1"/>
  </linearGradient>
 </defs>
 <g>
  <path d="m 36.31 5 c 5.859 4.062 9.688 10.831 9.688 18.5 c 0 12.426 -10.07 22.5 -22.5 22.5 c -7.669 0 -14.438 -3.828 -18.5 -9.688 c 1.037 1.822 2.306 3.499 3.781 4.969 c 4.085 3.712 9.514 5.969 15.469 5.969 c 12.703 0 23 -10.298 23 -23 c 0 -5.954 -2.256 -11.384 -5.969 -15.469 c -1.469 -1.475 -3.147 -2.744 -4.969 -3.781 z m 4.969 3.781 c 3.854 4.113 6.219 9.637 6.219 15.719 c 0 12.703 -10.297 23 -23 23 c -6.081 0 -11.606 -2.364 -15.719 -6.219 c 4.16 4.144 9.883 6.719 16.219 6.719 c 12.703 0 23 -10.298 23 -23 c 0 -6.335 -2.575 -12.06 -6.719 -16.219 z" style="opacity:0.05"/>
  <path d="m 41.28 8.781 c 3.712 4.085 5.969 9.514 5.969 15.469 c 0 12.703 -10.297 23 -23 23 c -5.954 0 -11.384 -2.256 -15.469 -5.969 c 4.113 3.854 9.637 6.219 15.719 6.219 c 12.703 0 23 -10.298 23 -23 c 0 -6.081 -2.364 -11.606 -6.219 -15.719 z" style="opacity:0.1"/>
  <path d="m 31.25 2.375 c 8.615 3.154 14.75 11.417 14.75 21.13 c 0 12.426 -10.07 22.5 -22.5 22.5 c -9.708 0 -17.971 -6.135 -21.12 -14.75 a 23 23 0 0 0 44.875 -7 a 23 23 0 0 0 -16 -21.875 z" style="opacity:0.2"/>
 </g>
 <g>
  <path d="m 20.654 1.246 c -11.12 1.621 -19.654 11.188 -19.654 22.754 c 0 1.927 0.241 3.797 0.688 5.586 c 1.829 1.497 5.437 2.887 3.895 8.193 c 4.195 5.598 10.884 9.221 18.418 9.221 c 3.85 0 7.476 -0.951 10.664 -2.623 c -1.247 -1.818 3.781 -7.193 7.289 -6.01 c 3.155 -3.937 5.05 -8.931 5.05 -14.369 c 0 -10.864 -7.534 -19.963 -17.66 -22.371 c -0.001 0 -0.001 0 -0.002 0 c -2.608 1.204 -5.816 0.826 -8.684 -0.383 z" style="fill:url(#linearGradient3764);fill-opacity:1"/>
  <path d="m 24 1 c -1.08 0 -2.14 0.081 -3.18 0.225 c 11.57 13.553 -5.415 21.598 -18.748 29.73 c 0.928 2.928 2.427 5.6 4.365 7.891 c 7.275 -3.279 17.732 1.472 27.637 5.834 c 3.01 -1.468 5.646 -3.572 7.742 -6.137 c -6.188 -5.154 -8.853 -18.828 -11.602 -36.686 c -1.978 -0.554 -4.06 -0.857 -6.215 -0.857 z" style="fill:#000;fill-opacity:0.098"/>
  <path d="m 24 1 c -1.137 0 -2.253 0.087 -3.346 0.246 c 9.732 12.74 -6.074 20.538 -18.967 28.34 c 0.751 3.01 2.09 5.785 3.895 8.193 c 7.661 -3.322 18.787 2.103 29.08 6.598 c 2.828 -1.483 5.308 -3.536 7.289 -6.01 c -6.912 -4.316 -9.744 -18.223 -12.613 -36.74 c -1.714 -0.408 -3.501 -0.629 -5.34 -0.629 z" style="fill:url(#linearGradient4198);fill-opacity:1"/>
 </g>
 <g>
  <g>
   <g transform="translate(1,1)">
    <g style="opacity:0.1">
     <!-- color: #e6511e -->
    </g>
   </g>
  </g>
 </g>
 <g>
  <g>
   <!-- color: #e6511e -->
  </g>
 </g>
 <g>
  <path d="m 40.03 7.531 c 3.712 4.084 5.969 9.514 5.969 15.469 0 12.703 -10.297 23 -23 23 c -5.954 0 -11.384 -2.256 -15.469 -5.969 4.178 4.291 10.01 6.969 16.469 6.969 c 12.703 0 23 -10.298 23 -23 0 -6.462 -2.677 -12.291 -6.969 -16.469 z" style="opacity:0.1"/>
 </g>
</svg>

<svg xmlns="http://www.w3.org/2000/svg" viewBox="0 0 48 48">
  <defs>
    <linearGradient id="a" x1="1" x2="47" gradientUnits="userSpaceOnUse" gradientTransform="rotate(-90 24 24)">
      <stop stop-color="#d84a18"/>
      <stop offset="1" stop-color="#e6511e"/>
    </linearGradient>
    <linearGradient id="b" y1="47" x2="0" y2="1" gradientUnits="userSpaceOnUse">
      <stop stop-color="#70b219"/>
      <stop offset="1" stop-color="#7cc41c"/>
    </linearGradient>
  </defs>
  <path d="M36.31 5c5.859 4.062 9.688 10.831 9.688 18.5 0 12.426-10.07 22.5-22.5 22.5-7.669 0-14.438-3.828-18.5-9.688a23.24 23.24 0 0 0 3.781 4.969 22.923 22.923 0 0 0 15.469 5.969c12.703 0 23-10.298 23-23a22.92 22.92 0 0 0-5.969-15.469A23.216 23.216 0 0 0 36.31 5zm4.969 3.781A22.911 22.911 0 0 1 47.498 24.5c0 12.703-10.297 23-23 23a22.909 22.909 0 0 1-15.719-6.219C12.939 45.425 18.662 48 24.998 48c12.703 0 23-10.298 23-23 0-6.335-2.575-12.06-6.719-16.219z" opacity=".05"/>
  <path d="M41.28 8.781a22.923 22.923 0 0 1 5.969 15.469c0 12.703-10.297 23-23 23A22.92 22.92 0 0 1 8.78 41.281 22.911 22.911 0 0 0 24.499 47.5c12.703 0 23-10.298 23-23A22.909 22.909 0 0 0 41.28 8.781z" opacity=".1"/>
  <path d="M31.25 2.375C39.865 5.529 46 13.792 46 23.505c0 12.426-10.07 22.5-22.5 22.5-9.708 0-17.971-6.135-21.12-14.75a23 23 0 0 0 44.875-7 23 23 0 0 0-16-21.875z" opacity=".2"/>
  <path d="M20.654 1.246C9.534 2.867 1 12.434 1 24c0 1.927.241 3.797.688 5.586 1.829 1.497 5.437 2.887 3.895 8.193C9.778 43.377 16.467 47 24.001 47c3.85 0 7.476-.951 10.664-2.623-1.247-1.818 3.781-7.193 7.289-6.01a22.9 22.9 0 0 0 5.05-14.369c0-10.864-7.534-19.963-17.66-22.371h-.002c-2.608 1.204-5.816.826-8.684-.383z" fill="url(#a)"/>
  <path d="M24 1c-1.08 0-2.14.081-3.18.225 11.57 13.553-5.415 21.598-18.748 29.73a22.961 22.961 0 0 0 4.365 7.891c7.275-3.279 17.732 1.472 27.637 5.834a23.06 23.06 0 0 0 7.742-6.137c-6.188-5.154-8.853-18.828-11.602-36.686A23.002 23.002 0 0 0 23.999 1z" fill-opacity=".098"/>
  <path d="M24 1c-1.137 0-2.253.087-3.346.246 9.732 12.74-6.074 20.538-18.967 28.34a22.89 22.89 0 0 0 3.895 8.193c7.661-3.322 18.787 2.103 29.08 6.598a23.068 23.068 0 0 0 7.289-6.01c-6.912-4.316-9.744-18.223-12.613-36.74a23.031 23.031 0 0 0-5.34-.629z" fill="url(#b)"/>
  <g>
    <path d="M40.03 7.531A22.922 22.922 0 0 1 45.999 23c0 12.703-10.297 23-23 23A22.92 22.92 0 0 1 7.53 40.031C11.708 44.322 17.54 47 23.999 47c12.703 0 23-10.298 23-23 0-6.462-2.677-12.291-6.969-16.469z" opacity=".1"/>
  </g>
</svg>
